X:1
T:Title
%%score { 1 | 2 }
L:1/8
Q:1/4=80
M:4/4
K:Bb
V:1 treble nm="Grand Piano"
V:2 bass 
V:1
 [Fd]>[Fd] [Fd]>[Ec] [DB]2 [Fd]2 | c>B A>G [B,DF]4 | [B,EG]>[B,GB] [B,FA]>[B,EG] [B,F]2 [B,FB]2 | %3
w: Charles~H.~Gabriel * * * * *|||
 [=Ec]>[EG] [EA]>[EB] [Fc]4 | [Fd]>[Fd] [Fd]>[Ec] [DB]2 [Fd]2 | c>B A>G [Ge]4 | %6
w: |||
 d>d F>d c>c [=EG]>[EB] | [EA]2 [EF]2 [DB]4 | [GB]>[^FA] [GB]>[FA] [GB]2 [Ge]2 | %9
w: |||
 [Fd]>[DF] [Fd]>[DF] [Fd]4 | [=Ed]>[Ec] [EB]>[EG] [Ed]>[Ec] [EB]>[EG] | F2 F2 e4 | %12
w: |||
 [Fd]>[Fd] [Fd]>[Ec] [DB]2 [Fd]2 | c>B A>G [Ge]4 | d>d F>d c>c [=EG]>[EB] | %15
w: |||
[M:8/4] [EA]2 [EF]2 [DB]4 z8 |] %16
w: |
V:2
 [B,,B,]>[B,,B,] [B,,B,]>[B,,B,] [B,,B,]2 [B,,B,]2 | [E,G,E]>[E,G,E] [E,G,E]>[E,B,E] B,,4 | %2
 E,>E, E,>E, D,2 D,2 | [C,B,]>[C,C] [C,C]>[C,G,] [F,A,]4 | %4
 [B,,B,]>[B,,B,] [B,,B,]>[B,,F,] [B,,F,]2 [B,,B,]2 | [E,G,E]>[E,G,E] [E,G,E]>[E,B,E] [E,B,]4 | %6
 [F,B,F]>[F,B,F] [F,B,D]>[F,B,F] [G,B,=E]>[G,B,E] [C,C]>[C,C] | [F,C]2 [F,A,]2 [B,,B,]4 | %8
 [E,B,]>[E,C] [E,B,]>[E,C] [E,B,]2 [E,B,]2 | [B,,B,]>[B,,B,] [B,,B,]>[B,,B,] [B,,B,]4 | %10
 [C,B,]>[C,B,] [C,G,]>[C,C] [C,B,]>[C,B,] [C,G,]>[C,B,] | [F,A,]2 [F,A,]2 [F,CF]4 | %12
 [B,,B,]>[B,,B,] [B,,B,]>[B,,F,] [B,,F,]2 [B,,B,]2 | [E,G,E]>[E,G,E] [E,G,E]>[E,B,E] [E,B,]4 | %14
 [F,B,F]>[F,B,F] [F,B,D]>[F,B,F] [G,B,=E]>[G,B,E] [C,C]>[C,C] | %15
[M:8/4] [F,C]2 [F,A,]2 [B,,B,]4 z8 |] %16

